X: 1
T: Miss Jamie Berg
C: James Gray
R: strathspey
B: Alex & James Gray "Tweeddale Collection" p.44 #2,5
N: Tune for The Black Squirrel
Z: 2013 John Chambers <jc:trillian.mit.edu>
S: PDF from Susie Petrov 2013-9
M: C
L: 1/8
K: G
F |\
"G"G2 g>f "G/B"g<G B<d | "Am"e<E A>G "D"F>E F<D |\
"G"G2 g/a/b "G/B"g<G B<d | "Am"e<E "D"F>D "G"G2 GF |
"G"G2 g>f "G/B"g<G B<d | "Am"e<E A>G "D"F>E F<D |\
"G"G2 g/a/b "G/B"g<G B<d | "Am"e<E "D"F>D "G"G2 ||
ga |\
"G"(3bag "D"a>f "G"g>G B<d | "Am"(3edc "G"d>B "Am"E>A "D"F<D |\
"G"(3bag "D"a>f "G"g>G B<d | "Am"e>c "D"d<F "G"G2 g>a |
"G"(3bag "D/F#"agf "Em"gfe "Bm"fed | "C"(3edc "G/B"d>B "Am"A>G "D"F<D |\
"G"G2 g/a/b "G/B"g<G B<d | "Am"e<D "D"F>D "G"G2 |]
